X:1
T:Title
%%score { 1 | 2 }
L:1/8
M:6/4
K:G
V:1 treble nm="Grand Piano"
V:2 treble 
V:1
 z6 z4[Q:1/4=108] GA | B3 _B =B2 G4 [FA][GB] | [Ac]3 [GB] [Ac]2 [FA]4 [GB][Ac] | %3
 [Bd]3 e d2 B2 A2 G2 |[M:5/4] [FA]2- [FA]2- [FA]6 |[M:1/4] GA |[M:6/4] B3 _B =B2 G2 G2 B2 | %7
[M:7/4] [EGc]3 [^DGB] [EGc]2 [Ge]6 [EGc][EGc] |[M:13/8] [DGB]2 [Gd]2 [GB]2 [FA]2 [Fc]3 BA | %9
[M:5/4] G2- G2- G6 |[M:1/4] dd |[M:6/4] [Ge]3 [Ge] [Ge]2 [EGc]4 [Ge][Ge] | d2 d2 d2 B4 dd | %13
 [Fd]3 [FA] [FA]2 [FA]2 [Fd]2 [Fc]2 |[M:5/4] B2- B2- B6 |[M:1/4] dd | %16
[M:6/4] [Ge]3 [Ge] [Ge]2 [EGc]4 [Ge][Ge] | d2 d2 d2 B4 dd | %18
[M:13/8] [Fd]2 [FA]2 [FA]2 [FA]2 [Fc]3 BA |[M:5/4] G2- G2- G6 |] %20
V:2
 z6 z4 [G,B,][G,CG] | [G,DG]3 [G,^CG] [G,DG]2[K:bass] [G,B,D]4 [D,D][D,D] | %2
 [D,D]3 [D,D] [D,D]2 [D,D]4[K:treble] [G,D][G,D] | %3
 [G,D]3 [G,CG] [G,B,G]2 [G,DG]2 [G,CF]2[K:bass] [G,B,]2 |[M:5/4] [D,D]2- [D,D]2- [D,D]6 | %5
[M:1/4] [G,B,][K:treble][G,CG] |[M:6/4] [G,DG]3 [G,^CG] [G,DG]2 [G,B,D]2 [G,B,D]2 [G,DG]2 | %7
[M:7/4][K:bass] C,3 C, C,2 [C,C]6 C,C, |[M:13/8] D,2 [D,B,]2 [D,D]2 [D,D]2 [D,D]3 [D,CD]2 | %9
[M:5/4][K:treble] [G,B,D]2- [G,B,D]2- [G,B,D]6 |[M:1/4] [G,B,G][G,B,G] | %11
[M:6/4][K:bass] [C,C]3 [C,C] [C,C]2 C,4 [C,C][C,C] | %12
 [G,B,G]2 [G,B,G]2 [G,B,G]2 [G,DG]4 [G,B,G][G,B,G] | [D,A,]3 [D,D] [D,D]2 [D,D]2 [D,A,]2 [D,D]2 | %14
[M:5/4][K:treble] [G,DG]2- [G,DG]2- [G,DG]6 |[M:1/4] [G,B,G][G,B,G] | %16
[M:6/4][K:bass] [C,C]3 [C,C] [C,C]2 C,4 [C,C][C,C] | %17
 [G,B,G]2 [G,B,G]2 [G,B,G]2 [G,DG]4 [G,B,G][G,B,G] | %18
[M:13/8][K:bass] [D,A,]2 [D,D]2 [D,D]2 [D,D]2 [D,D]3 [D,CD]2 | %19
[M:5/4] [G,B,D]2- [G,B,D]2- [G,B,D]6 |] %20

